X:1
T:Lead Me, Lord
T:Lead Me, Lord
T:Remixed for Children/Unison
T:Samuel S. Wesley
T:Psalm 5:8; 4:8
T:Text, Tune, and Setting: Public Domain
T:Text, Tune, and Setting: Public Domain
C:Samuel S. Wesley
Z:Text, Tune, and Setting: Public Domain
%%score 1 { ( 2 3 7 ) | ( 4 5 6 ) }
L:1/8
Q:1/4=76
M:4/4
K:D
V:1 treble nm="Voice"
V:2 treble nm="Pipe Organ"
V:3 treble 
V:7 treble 
V:4 bass 
V:5 bass 
V:6 bass 
V:1
 z8 | z8 | z8 | z8 | F4 E4 | D8 | G2 F2 E2 D2 | F3 F E4 | A4 F2 E2 | D4 E4 | F4 E4 | D4 z4 | %12
w: ||||Lead me,|Lord,|lead me in Thy|right- eous- ness:|make Thy way|plain be-|fore my|face.|
 F4 E4 | D8 | G2 F2 E2 D2 | F3 F E4 | A4 F2 E2 | D4 E4 | F4 E4 | D4 z4 | A4 G2 F2 | B4 A4 | %22
w: Lead me,|Lord,|lead me in thy|right- eous- ness,|make thy way|plain be-|fore my|face.|For it is|Thou, Lord,|
 (A2 F2) (D2 G2) | F4 E2 E2 | A4 B2 c2 | d4 (E2 FG) | (F4 E4 | D4) z4 | A4 G2 F2 | B4 A4 | %30
w: Thou, _ Lord, _|on- ly, that|mak- est me|dwell in _ _|safe- *|ty.|For it is|Thou, Lord,|
 A2 F2 D2 G2 | F4 E2 E2 | A4 B2 c2 | d4 (E2 FG) | (F4 E4 | D8) |] %36
w: Thou, _ Lord, _|on- ly, that|mak- est me|dwell in _ _|safe- *|ty.|
V:2
!p! A4 F2 E2 | D4 E4 | F4 E4 | D2 A,2 D2 E2 | F4 E4 | x8 | G2 F2 E2 D2 | F4 E4 | A4 F2 E2 | D4 E4 | %10
 F4 E4 | D2 A,2 D2 E2 | F4 E4 | D8 | G2 F2 E2 D2 | F3 F E4 | A4 F2 E2 | D4 E4 | F4 E4 | D4 F2 G2 | %20
 A4 G2 F2 | B4 A4 | A2 F2 D2 G2 | F4 E4 | A4 B2 c2 | d4 E4 | F4 E4 | D4 z4 | A4 G2 F2 | B4 A4 | %30
 A2 F2 D2 G2 | F4 E4 | A4 B2 c2 | d4 E2 FG |"^rit." F4 E4 | D8 |] %36
V:3
 C8 | D8- | D4 C4 | x4 D4 | D4 C4 | D8- | D8- | D4 C4 | C8 | D8- | D4 C4 | x4 D4 | D4 (D2 C2) | %13
 C2 B,4 A,2 | D6 D2- | D4 C4- | C8 | D4 D4- | D4 C4 | x6 C2 | D4 C2 D2- | D2 E2 D4- | D8- | %23
 D4 C4- | C4 F2 E2 | D4 D4- | D4 C4 | D4 x4 | D4 C2 D2- | D4 D4- | D4 D4- | D4 C4 | F8 | F4 D4- | %34
 D4 C4 | x8 |] %36
V:4
 A,4- A,2 G,2 | F,4 B,4 | A,6 G,2 | F,4 F,2 G,2 | A,4 G,4 | B,6 A,2 | G,2 A,2 B,2 ^G,2 | A,8- | %8
 A,6 G,2 | F,4 B,4 | A,6 G,2 | F,4 F,2 G,2 |!p! A,4 G,4 | F,8 | G,2 A,2 B,2 ^G,2 | A,8- | A,6 G,2 | %17
 F,4 B,4 | A,6 G,2 | A,6 A,2- | A,8 | G,4 F,4 | A,4 G,4 | A,4- A,4 | F,4 ^G,2 ^A,2 | B,4 B,4 | %26
 A,6 G,2 | F,4 z4 | A,8 | B,4 z4 | D,4 G,4 | A,8 | x4 B,2 ^A,2 | B,4 B,4 | A,8 | F,8 |] %36
V:5
 F,4 A,,4 | B,,4 G,,4 | A,,8 | D,4 x4 | D,4 ^A,,4 | B,,4 =C,4 | B,,2 A,,2 G,,2 B,,2 | A,,6 G,,2 | %8
 F,,4 A,,4 | B,,4 G,,4 | A,,8 | D,4 x4 | D,4 ^A,,4 | B,,4 =C,4 | B,,2 A,,2 G,,2 B,,2 | A,,6 G,,2 | %16
 F,,4 A,,4 | B,,4 G,,4 | A,,8 | F,6 E,2 | F,4 E,2 D,2 | G,4 F,4 | F,,4 B,,4 | A,,4 A,2 G,2 | %24
 F,2 E,2 D,2 C,2 | B,,2 A,,2 G,,4 | A,,8 | D,4 A,,2 G,,2 | F,,4 E,,2 D,,2 | G,,4 F,,4 | F,,4 B,,4 | %31
 A,,4 A,2 G,2 | F,2 E,2 D,2 C,2 | B,,2 A,,2 G,,4 | A,,8 | D,,8 |] %36
V:6
 x8 | x8 | x8 | x8 | x8 | x8 | x8 | x8 | x8 | x8 | x8 | x8 | x8 | x8 | x8 | x8 | x8 | x8 | x8 | %19
 D,6 x2 | x8 | x8 | x8 | x8 | x8 | x8 | x8 | x8 | x8 | x8 | x8 | x8 | x8 | x8 | A,6 G,2 | D,8 |] %36
V:7
 x8 | x8 | x8 | x8 | x8 | x8 | x8 | x8 | x8 | x8 | x8 | x8 | x8 | x8 | x8 | x8 | x8 | x8 | x8 | %19
 x8 | x8 | x2 C2 x4 | x8 | x8 | x4 F4- | F4 x4 | x8 | x8 | x8 | x8 | x8 | x8 | C4 x4 | x8 | x8 | %35
 x8 |] %36

